img/mail.svg

<svg width="32" height="32" viewBox="0 0 32 32" fill="none" xmlns="http://www.w3.org/2000/svg">
<rect width="32" height="32" rx="16" fill="#FF5533"/>
<path fill-rule="evenodd" clip-rule="evenodd" d="M8.92757 11.514C9.11722 11.6426 9.3702 11.8137 9.66852 12.0143C10.3463 12.4701 11.2569 13.0771 12.19 13.6837C13.1248 14.2913 14.0752 14.8938 14.8347 15.3426C15.2158 15.5678 15.5382 15.748 15.7817 15.8697C15.8713 15.9145 15.9437 15.9481 16 15.9721C16.0563 15.9481 16.1288 15.9145 16.2183 15.8697C16.4618 15.748 16.7843 15.5678 17.1654 15.3426C17.9249 14.8938 18.8753 14.2913 19.81 13.6837C20.7431 13.0771 21.6537 12.4701 22.3315 12.0143C22.6298 11.8138 22.8828 11.6426 23.0725 11.514C22.7062 11.0487 22.138 10.75 21.5 10.75H10.5C9.862 10.75 9.29377 11.0487 8.92757 11.514ZM23.5 13.0358C23.3973 13.1051 23.2864 13.1798 23.1685 13.2591C22.4869 13.7174 21.5694 14.3291 20.6275 14.9413C19.6873 15.5525 18.7158 16.1687 17.9284 16.634C17.5361 16.8658 17.1789 17.0665 16.8891 17.2113C16.7451 17.2834 16.6057 17.3477 16.4799 17.3958C16.3824 17.4331 16.1972 17.5 16 17.5C15.8029 17.5 15.6177 17.4331 15.5201 17.3958C15.3944 17.3477 15.2549 17.2834 15.1109 17.2113C14.8212 17.0665 14.464 16.8658 14.0716 16.634C13.2843 16.1687 12.3127 15.5525 11.3725 14.9413C10.4306 14.3291 9.51312 13.7174 8.83153 13.2591C8.71363 13.1798 8.60276 13.1051 8.5 13.0358V19.25C8.5 20.3546 9.39543 21.25 10.5 21.25H21.5C22.6046 21.25 23.5 20.3546 23.5 19.25V13.0358ZM15.8954 16.0114C15.8954 16.0113 15.8972 16.0108 15.9006 16.01C15.897 16.011 15.8953 16.0114 15.8954 16.0114ZM16.0995 16.01C16.1028 16.0108 16.1046 16.0113 16.1047 16.0114C16.1047 16.0114 16.103 16.011 16.0995 16.01Z" fill="white"/>
</svg>

<svg width="32" height="32" fill="none" xmlns="http://www.w3.org/2000/svg"><rect width="32" height="32" rx="16" fill="#F53"/><path fill-rule="evenodd" clip-rule="evenodd" d="M8.928 11.514a230.922 230.922 0 003.262 2.17 78.28 78.28 0 002.645 1.659c.38.225.703.405.947.527.09.045.162.078.218.102a3.78 3.78 0 00.218-.102c.244-.122.566-.302.947-.527a79.43 79.43 0 002.645-1.66 199.51 199.51 0 003.263-2.169 1.997 1.997 0 00-1.573-.764h-11c-.638 0-1.206.299-1.572.764zM23.5 13.036l-.331.223c-.682.458-1.6 1.07-2.541 1.682a79.576 79.576 0 01-2.7 1.693c-.392.232-.75.433-1.039.577a4.658 4.658 0 01-.41.185A1.38 1.38 0 0116 17.5c-.197 0-.382-.067-.48-.104a4.671 4.671 0 01-.41-.185 17.377 17.377 0 01-1.038-.577 79.676 79.676 0 01-2.7-1.693A200.283 200.283 0 018.5 13.036v6.214a2 2 0 002 2h11a2 2 0 002-2v-6.214zm-7.605 2.975l.006-.001-.006.001zm.204-.001a.05.05 0 01.006.001l-.006-.001z" fill="#fff"/></svg>
